X: 19
T: Ce n'est pas moy
N: Derived from Bus3011-Ce_nest_pas_moy.krn
C: Antoine Busnoys
%%abc-version 2.0
%%abcx-abcm2ps-target-version 5.9.1 (29 Sep 2008)
%%abc-creator hum2abc beta
%%abcx-conversion-date 2019/02/16 20:26:06
%%abc-edited-by Jesse Rodin
%%abc-edited-by Chris Gage 04-02-2015
%%abcx-initial-encoding-date 2015/05/01/
%%humdrum-veritas 2374558928
%%humdrum-veritas-data 1483005308
%%linebreak <none>
%%barnumbers 0
L: 1/4
M: 2/1
Q: 1/2=120
V: 1 clef=treble
V: 2 clef=treble-8
V: 3 clef=treble-8
K: F
[V:1] z8 | 
[V:2] z8 | 
[V:3] z4F4 | 
[V:1] z4F4 | 
[V:2] z8 | 
[V:3] B6c2 | 
[V:1] B4c4 | 
[V:2] z4F4 | 
[V:3] d4A4 | 
[V:1] d6cB | 
[V:2] B4c4 | 
[V:3] z4A4 | 
[V:1] A4B2c2- | 
[V:2] d6c2 | 
[V:3] D2F2G2E2 | 
[V:1] c2A2G4 | 
[V:2] c2f4e2 | 
[V:3] G4z2c2 | 
[V:1] F4z4 | 
[V:2] f4B4 | 
[V:3] d3ef4 | 
[V:1] f4f4 | 
[V:2] z4B4- | 
[V:3] B4z2d2- | 
[V:1] f6d2 | 
[V:2] B2A2B4 | 
[V:3] d2c2B3A/G/ | 
[V:1] edcBA3G | 
[V:2] c8 | 
[V:3] F8 | 
[V:1] B8 | 
[V:2] B8- | 
[V:3] G4_E4- | 
[V:1] z4F4 | 
[V:2] B8- | 
[V:3] E2C2B,4 | 
[V:1] F4G4 | 
[V:2] B8 | 
[V:3] z4_E4 | 
[V:1] A6Bc | 
[V:2] z4F4 | 
[V:3] F4D4- | 
[V:1] d6cd | 
[V:2] F4G4 | 
[V:3] D2CD_E4 | 
[V:1] c6B2 | 
[V:2] A6Bc | 
[V:3] F8 | 
[V:1] A2G2A4- | 
[V:2] d6cd | 
[V:3] z4D4 | 
[V:1] A2G2F4- | 
[V:2] c4A4 | 
[V:3] _E4F4 | 
[V:1] F4E4 | 
[V:2] G8 | 
[V:3] C8 | 
[V:1] F8 | 
[V:2] F4a4- | 
[V:3] c4F4 | 
[V:1] z8 | 
[V:2] a2g2f4- | 
[V:3] c4A4 | 
[V:1] z8 | 
[V:2] f2e2e2d2 | 
[V:3] G8 | 
[V:1] z4F4 | 
[V:2] f8 | 
[V:3] F8 | 
[V:1] B6A2 | 
[V:2] B8 | 
[V:3] z4G4 | 
[V:1] B4c4 | 
[V:2] z4F4 | 
[V:3] G4A4 | 
[V:1] d4d4 | 
[V:2] B6A2 | 
[V:3] G4d4- | 
[V:1] d8 | 
[V:2] B4B4 | 
[V:3] d2c2B4- | 
[V:1] _e6dc | 
[V:2] c8 | 
[V:3] B4A4 | 
[V:1] B4f4- | 
[V:2] d8 | 
[V:3] G4B4- | 
[V:1] f4_e4 | 
[V:2] z4c4 | 
[V:3] B4c4 | 
[V:1] d4c2B2 | 
[V:2] d4e4 | 
[V:3] G8 | 
[V:1] A8 | 
[V:2] f6g2 | 
[V:3] d6cB | 
[V:1] z4d4 | 
[V:2] a4f4 | 
[V:3] A4B4- | 
[V:1] d4e4 | 
[V:2] g6fe | 
[V:3] B4c4 | 
[V:1] f6ed | 
[V:2] d6B2 | 
[V:3] d8 | 
[V:1] e4d4- | 
[V:2] c4B4- | 
[V:3] z4G4- | 
[V:1] d2c2B4- | 
[V:2] B2A2B4 | 
[V:3] G8 | 
[V:1] B2AGA2Bc | 
[V:2] c6de | 
[V:3] E4F4- | 
[V:1] d4_e3d | 
[V:2] f4_e4- | 
[V:3] F4c4 | 
[V:1] c3BB4- | 
[V:2] e4d4 | 
[V:3] A4B4 | 
[V:1] B2A2A2G2 | 
[V:2] c8 | 
[V:3] F8 | 
[V:1] B8 ]|:  
[V:2] B8 ]|:  
[V:3] B,8 ]|:  
[V:1]  [K:F] [K:clef=treble][M:2/1]B8 | 
[V:2]  [K:F] [K:clef=treble-8][M:2/1]z8 | 
[V:3]  [K:F] [K:clef=treble-8][M:2/1]B8 | 
[V:1] d4_e4 | 
[V:2] z8 | 
[V:3] B4c4 | 
[V:1] f8 | 
[V:2] B8 | 
[V:3] d8- | 
[V:1] f4g4- | 
[V:2] d4_e4 | 
[V:3] d4B2c2 | 
[V:1] g2f2f4- | 
[V:2] f4f4 | 
[V:3] d4f4 | 
[V:1] f2_ededcB | 
[V:2] g4g4 | 
[V:3] c8 | 
[V:1] A4A4 | 
[V:2] f4f4 | 
[V:3] z4F4 | 
[V:1] A4A4 | 
[V:2] f4f4 | 
[V:3] F4F4 | 
[V:1] B4c4 | 
[V:2] d4e4 | 
[V:3] G4E4 | 
[V:1] d4d4 | 
[V:2] f4B4 | 
[V:3] D4D4 | 
[V:1] _e6f2 | 
[V:2] A8 | 
[V:3] C8 | 
[V:1] g6f_e | 
[V:2] z4B4- | 
[V:3] G8 | 
[V:1] d6cB | 
[V:2] B2AGB4 | 
[V:3] z4G4 | 
[V:1] A4B4- | 
[V:2] d4B4 | 
[V:3] F4G4 | 
[V:1] B4A4 | 
[V:2] c8 | 
[V:3] F8 | 
[V:1] B8 :|]  
[V:2] B8 :|]  
[V:3] B,8 :|]  



